X: 1146
T: An Buachaillin Bui
R: jig
M: 6/8
K: Dmajor
B|:{c}AFA .D.FA|.D.FA A.dB|AFA .D.FA|{c}B{c}BA .BdB|
{Ac}AFA .D.FA|D.FA {c}ABc|def {a}g.fe|fdA VB2.d:|
|:A.d.d f.d.d|e.d.d f.d.d|A.d.d f.d.d|edB {c}BAF|
A.d.d fdd|e.d.d f.d.d|{a}gfe .fdB|{c}AFA VB2d:|

